packages/core/assets/Icons/windmill.svg

<svg viewBox="0 0 20 20" fill="none" xmlns="http://www.w3.org/2000/svg">
<path d="M7.49984 18.3333V17.5C7.49984 17.0556 7.6665 16.684 7.99984 16.3854C8.33317 16.0868 8.72206 15.9028 9.1665 15.8333V9.87501C8.86095 9.7639 8.59359 9.60418 8.36442 9.39584C8.13525 9.18751 7.94428 8.94445 7.7915 8.66668L6.20817 9.08334C5.70817 9.19445 5.23248 9.15279 4.78109 8.95834C4.3297 8.7639 4.0415 8.43057 3.9165 7.95834L7.5415 7.04168C7.65261 6.47223 7.9165 6.00001 8.33317 5.62501C8.74984 5.25001 9.24984 5.04168 9.83317 5.00001L10.3332 3.12501C10.4721 2.6389 10.7394 2.25348 11.1353 1.96876C11.5311 1.68404 11.9721 1.59723 12.4582 1.70834L11.4165 5.45834C11.7637 5.68057 12.0311 5.97223 12.2186 6.33334C12.4061 6.69446 12.4998 7.08334 12.4998 7.50001C12.4998 7.68057 12.479 7.85765 12.4373 8.03126C12.3957 8.20487 12.3471 8.37501 12.2915 8.54168L13.4165 9.70834C13.7637 10.0695 13.9686 10.4931 14.0311 10.9792C14.0936 11.4653 13.9582 11.875 13.6248 12.2083L11.1248 9.70834C11.0832 9.75001 11.038 9.78126 10.9894 9.80209C10.9408 9.82293 10.8887 9.84723 10.8332 9.87501V15.8333C11.2776 15.9028 11.6665 16.0868 11.9998 16.3854C12.3332 16.684 12.4998 17.0556 12.4998 17.5V18.3333H7.49984ZM9.99984 8.75001C10.3471 8.75001 10.6422 8.62848 10.8853 8.38543C11.1283 8.14237 11.2498 7.84723 11.2498 7.50001C11.2498 7.15279 11.1283 6.85765 10.8853 6.61459C10.6422 6.37154 10.3471 6.25001 9.99984 6.25001C9.65261 6.25001 9.35748 6.37154 9.11442 6.61459C8.87136 6.85765 8.74984 7.15279 8.74984 7.50001C8.74984 7.84723 8.87136 8.14237 9.11442 8.38543C9.35748 8.62848 9.65261 8.75001 9.99984 8.75001Z" fill="currentColor"/>
</svg>

<svg xmlns="http://www.w3.org/2000/svg" width="20" height="20" fill="none" viewBox="0 0 20 20">
  <path fill="#201F1F" d="M7.5 18.333V17.5c0-.444.167-.816.5-1.115a2.229 2.229 0 0 1 1.166-.552V9.875a2.395 2.395 0 0 1-.802-.48 2.803 2.803 0 0 1-.573-.728l-1.583.416c-.5.111-.976.07-1.427-.125a1.44 1.44 0 0 1-.864-1l3.625-.916c.11-.57.375-1.042.791-1.417A2.437 2.437 0 0 1 9.833 5l.5-1.875c.14-.486.406-.872.802-1.156a1.57 1.57 0 0 1 1.323-.26l-1.042 3.75c.348.222.615.513.803.874a2.495 2.495 0 0 1 .218 1.698c-.041.174-.09.344-.146.51l1.125 1.167c.348.361.553.785.615 1.271.063.486-.073.896-.406 1.23l-2.5-2.5a.432.432 0 0 1-.136.093c-.048.02-.1.045-.156.073v5.958c.445.07.833.254 1.167.552.333.299.5.67.5 1.115v.833h-5ZM10 8.75c.347 0 .642-.122.885-.365s.365-.538.365-.885-.122-.642-.365-.885A1.206 1.206 0 0 0 10 6.25c-.347 0-.643.122-.886.365a1.205 1.205 0 0 0-.364.885c0 .347.121.642.364.885s.539.365.886.365Z"/>
</svg>
